X: 15341
T: Gladstone, The
R: reel
M: 4/4
K: Gmajor
BGcA defg|G2 BG AFDc|BGcA defg|dBcA G3c|
BGcA defg|G2 BG AFDc|BGcA defg|dBcA G3d||
g2bg f2af|e2ge dcBd|c2ec B2dB|AGAB cdef|
g2bg f2af|e2ge dcBd|cdec B2dB|AGFA|G2||

